packages/match-icons/sendgrid/svg/list.svg

<svg fill="none" height="32" viewBox="0 0 32 32" width="32" xmlns="http://www.w3.org/2000/svg"><g stroke="#394762" stroke-linecap="round" stroke-linejoin="round" stroke-width="1.7"><path d="m29 29.0146c0 .5305-.2107 1.0392-.5858 1.4143-.3751.375-.8838.5857-1.4142.5857h-22c-.53043 0-1.03914-.2107-1.41421-.5857-.37508-.3751-.58579-.8838-.58579-1.4143v-25.99995c0-.53043.21071-1.03914.58579-1.41422.37507-.37507.88378-.58578 1.41421-.58578h14.172c.5301.00011 1.0384.21064 1.4133.58533l7.8294 7.82934c.3747.37493.5852.88328.5853 1.41328z"/><path d="m29 11.0146h-8c-.5304 0-1.0391-.2107-1.4142-.5857-.3751-.3751-.5858-.88382-.5858-1.41425v-8"/><path d="m12.892 12.8253-2.8427 3.7894c-.08597.1145-.19556.2092-.32133.2777s-.26479.1091-.40764.1193c-.14285.0101-.28621-.0106-.42038-.0607s-.25601-.1284-.35728-.2297l-1.54267-1.5413"/><path d="m12.892 21.8253-2.8427 3.7894c-.08597.1145-.19556.2092-.32133.2777s-.26479.1091-.40764.1193c-.14285.0101-.28621-.0106-.42038-.0607s-.25601-.1284-.35728-.2297l-1.54267-1.5426"/><path d="m17 17.0146h6"/><path d="m17 25.0146h6"/></g></svg>

<svg width="32" height="32" viewBox="0 0 32 32" fill="none" xmlns="http://www.w3.org/2000/svg">
<path d="M29 29.0146C29 29.5451 28.7893 30.0538 28.4142 30.4289C28.0391 30.8039 27.5304 31.0146 27 31.0146H5C4.46957 31.0146 3.96086 30.8039 3.58579 30.4289C3.21071 30.0538 3 29.5451 3 29.0146V3.01465C3 2.48422 3.21071 1.97551 3.58579 1.60043C3.96086 1.22536 4.46957 1.01465 5 1.01465H19.172C19.7021 1.01476 20.2104 1.22529 20.5853 1.59998L28.4147 9.42932C28.7894 9.80425 28.9999 10.3126 29 10.8426V29.0146Z" stroke="#394762" stroke-width="1.7" stroke-linecap="round" stroke-linejoin="round"/>
<path d="M29 11.0146H21C20.4696 11.0146 19.9609 10.8039 19.5858 10.4289C19.2107 10.0538 19 9.54508 19 9.01465V1.01465" stroke="#394762" stroke-width="1.7" stroke-linecap="round" stroke-linejoin="round"/>
<path d="M12.892 12.8253L10.0493 16.6147C9.96333 16.7292 9.85374 16.8239 9.72797 16.8924C9.6022 16.9609 9.46318 17.0015 9.32033 17.0117C9.17748 17.0218 9.03412 17.0011 8.89995 16.951C8.76578 16.9009 8.64394 16.8226 8.54267 16.7213L7 15.18" stroke="#394762" stroke-width="1.7" stroke-linecap="round" stroke-linejoin="round"/>
<path d="M12.892 21.8253L10.0493 25.6147C9.96333 25.7292 9.85374 25.8239 9.72797 25.8924C9.6022 25.9609 9.46318 26.0015 9.32033 26.0117C9.17748 26.0218 9.03412 26.0011 8.89995 25.951C8.76578 25.9009 8.64394 25.8226 8.54267 25.7213L7 24.1787" stroke="#394762" stroke-width="1.7" stroke-linecap="round" stroke-linejoin="round"/>
<path d="M17 17.0146H23" stroke="#394762" stroke-width="1.7" stroke-linecap="round" stroke-linejoin="round"/>
<path d="M17 25.0146H23" stroke="#394762" stroke-width="1.7" stroke-linecap="round" stroke-linejoin="round"/>
</svg>
